!!!OTL: Schloss in Oesterreich.
!!!OTL-incipit: Das ganze Dorf versammelt sich
!!!ODT: 1772
!!!ARE: Europa, Mitteleuropa, Deutschland
!!!YOR: 1, S. 274  Komponist: J.M. Miller
!!    1799 gedruckt, 1772 komponiert
!!!SCT: Q1024L
!!!TXL: @@DE
!!!YEM: Copyright 1995, estate of Helmut Schaffrath.
**kern	**text
*ICvox	*
*M3/4	*
*k[f#c#]	*
*D:	*
!LO:TX:a:t=Wildheimer Ldb. 1799	!
!LO:TX:a:t=Melodienüberſicht II: Neuere Weiſe (JV)	!
{8a	Das
=1	=1
8a	gan-
8a	-ʒe
8aL	Dorf
8f#J	.
8gL	ver-
8eJ	.
=2	=2
8f#	-ſammlet
8f#	.
8f#L	ſich
8dJ}	.
{8eL	ʒum
8c#J	.
=3	=3
8d	Kirmes-
8a	.
8aL	-tanʒ
8gJ	.
8gL	und
8f#J	.
=4	=4
4f#t	Rei-
4e	-hen;
8r}	.
{8a	es
=5	=5
8a	freut
8dd	ſich
8ff#L	al-
8ddJ	.
8aL	-les,
8f#J	.
=6	=6
8g	a-
8e	-ber
4.ee}	mich
{8cc#	kann
=7	=7
8dd	für-
8b	-der
8aL	nichts
8f#J	.
8gL	er-
8eJ	.
=8	=8
4e	-freu-
4d	-en.
8r}	.
==	==
!!!AGN: Ballade, ??
!! Verzierung (Triller) in der zweiten Zeile. Variante (Ursprung ?)
!!    von Q0024ON ff. Anderes Lied.
!!!ONB: ESAC (Essen Associative Code) Database: BALLADE
!!!AMT: simple triple
!!!AIN: vox
!!!EED: Helmut Schaffrath
!!!EEV: 1.0
!!!source: Deutsche Volkslieder mit ihren Melodien. Balladen. Herausgegeben vom Deutschen Volksliedarchiv. Erster Band Balladen. Berlin und Leipzig 1935.
!!!page: 274
!!!ENC: Anna Maria Matuszewska
!!!EEV: 2025/02/14
*-	*-
